X: 1
T: The Kesh
R: jig
M: 6/8
L: 1/8
K: Gmaj
|:G3 GAB| A3 ABd|edd gdd|edB dBA|
GAG GAB|ABA ABd|edd gdd|BAF G3:|
B2B d2d|ege dBA|B2B dBG|ABA AGA|
BAB d^cd|ege dBd|gfg aga| bgg g3:|


Tune 55	Setting 23498

